dist/static/like-complete-svgrepo-com.svg

<svg xmlns="http://www.w3.org/2000/svg" width="754" height="800" fill="none"><path fill="#198754" fill-rule="evenodd" d="M659.157 470.588h-47.059v47.059c25.93 0 47.059 21.083 47.059 47.059s-21.129 47.059-47.059 47.059h-47.059v47.058c25.929 0 47.059 21.083 47.059 47.06 0 25.976-21.129 47.058-47.058 47.058h-400c-64.848 0-117.648-52.753-117.648-117.647V376.47h44.424c58.4 0 114.306-24 153.458-65.74 56.095-59.86 122.259-152.707 130.636-263.672h15.153c21.035 0 40.847 9.318 54.306 25.6 13.6 16.471 19.106 37.977 15.059 58.965-9.459 49.412-25.083 98.353-46.353 145.459-9.929 21.882-8.047 46.918 4.894 67.058 13.082 20.236 35.294 32.33 59.435 32.33h180.753c25.93 0 47.059 21.082 47.059 47.059 0 25.976-21.129 47.059-47.059 47.059m94.118-47.059c0-51.906-42.212-94.118-94.118-94.118H478.404c-8.188 0-15.435-3.906-19.858-10.776-4.33-6.729-4.942-14.824-1.6-22.165 22.776-50.447 39.529-102.965 49.741-156.047 6.635-34.823-2.447-70.447-25.036-97.74C459.204 15.576 426.169 0 391.063 0h-61.318v23.53c0 106.023-64.612 197.176-118.776 255.011-30.306 32.282-73.742 50.871-119.153 50.871H.333v305.882C.333 726.118 74.216 800 165.04 800h400c51.906 0 94.118-42.212 94.118-94.117 0-19.342-5.882-37.366-15.906-52.33 36.612-12.894 62.965-47.859 62.965-88.847 0-19.341-5.883-37.365-15.906-52.329 36.612-12.895 62.965-47.86 62.965-88.847" clip-rule="evenodd"/><path stroke="#B2B2B3" stroke-width=".417" d="M659.157 470.588h-47.059v47.059c25.93 0 47.059 21.083 47.059 47.059s-21.129 47.059-47.059 47.059h-47.059v47.058c25.929 0 47.059 21.083 47.059 47.06 0 25.976-21.129 47.058-47.058 47.058h-400c-64.848 0-117.648-52.753-117.648-117.647V376.47h44.424c58.4 0 114.306-24 153.458-65.74 56.095-59.86 122.259-152.707 130.636-263.672h15.153c21.035 0 40.847 9.318 54.306 25.6 13.6 16.471 19.106 37.977 15.059 58.965-9.459 49.412-25.083 98.353-46.353 145.459-9.929 21.882-8.047 46.918 4.894 67.058 13.082 20.236 35.294 32.33 59.435 32.33h180.753c25.93 0 47.059 21.082 47.059 47.059 0 25.976-21.129 47.059-47.059 47.059m94.118-47.059c0-51.906-42.212-94.118-94.118-94.118H478.404c-8.188 0-15.435-3.906-19.858-10.776-4.33-6.729-4.942-14.824-1.6-22.165 22.776-50.447 39.529-102.965 49.741-156.047 6.635-34.823-2.447-70.447-25.036-97.74C459.204 15.576 426.169 0 391.063 0h-61.318v23.53c0 106.023-64.612 197.176-118.776 255.011-30.306 32.282-73.742 50.871-119.153 50.871H.333v305.882C.333 726.118 74.216 800 165.04 800h400c51.906 0 94.118-42.212 94.118-94.117 0-19.342-5.882-37.366-15.906-52.33 36.612-12.894 62.965-47.859 62.965-88.847 0-19.341-5.883-37.365-15.906-52.329 36.612-12.895 62.965-47.86 62.965-88.847"/></svg>

<svg width="754" height="800" viewBox="0 0 754 800" fill="none" xmlns="http://www.w3.org/2000/svg">
<path fill-rule="evenodd" clip-rule="evenodd" d="M659.157 470.588H612.098V517.647C638.028 517.647 659.157 538.73 659.157 564.706C659.157 590.682 638.028 611.765 612.098 611.765H565.039V658.823C590.968 658.823 612.098 679.906 612.098 705.883C612.098 731.859 590.969 752.941 565.04 752.941H165.04C100.192 752.941 47.3921 700.188 47.3921 635.294V376.47H91.8159C150.216 376.47 206.122 352.47 245.274 310.73C301.369 250.87 367.533 158.023 375.91 47.0583H391.063C412.098 47.0583 431.91 56.3763 445.369 72.6583C458.969 89.1292 464.475 110.635 460.428 131.623C450.969 181.035 435.345 229.976 414.075 277.082C404.146 298.964 406.028 324 418.969 344.14C432.051 364.376 454.263 376.47 478.404 376.47H659.157C685.087 376.47 706.216 397.552 706.216 423.529C706.216 449.505 685.087 470.588 659.157 470.588M753.275 423.529C753.275 371.623 711.063 329.411 659.157 329.411H478.404C470.216 329.411 462.969 325.505 458.546 318.635C454.216 311.906 453.604 303.811 456.946 296.47C479.722 246.023 496.475 193.505 506.687 140.423C513.322 105.6 504.24 69.9762 481.651 42.6821C459.204 15.5767 426.169 0 391.063 0H329.745V23.5292C329.745 129.553 265.133 220.706 210.969 278.541C180.663 310.823 137.227 329.412 91.8159 329.412H0.333374V635.294C0.333374 726.118 74.2159 800 165.039 800H565.039C616.945 800 659.157 757.788 659.157 705.883C659.157 686.541 653.275 668.517 643.251 653.553C679.863 640.659 706.216 605.694 706.216 564.706C706.216 545.365 700.333 527.341 690.31 512.377C726.922 499.482 753.275 464.517 753.275 423.53" fill="#198754"/>
<path d="M659.157 470.588H612.098V517.647C638.028 517.647 659.157 538.73 659.157 564.706C659.157 590.682 638.028 611.765 612.098 611.765H565.039V658.823C590.968 658.823 612.098 679.906 612.098 705.883C612.098 731.859 590.969 752.941 565.04 752.941H165.04C100.192 752.941 47.3921 700.188 47.3921 635.294V376.47H91.8159C150.216 376.47 206.122 352.47 245.274 310.73C301.369 250.87 367.533 158.023 375.91 47.0583H391.063C412.098 47.0583 431.91 56.3763 445.369 72.6583C458.969 89.1292 464.475 110.635 460.428 131.623C450.969 181.035 435.345 229.976 414.075 277.082C404.146 298.964 406.028 324 418.969 344.14C432.051 364.376 454.263 376.47 478.404 376.47H659.157C685.087 376.47 706.216 397.552 706.216 423.529C706.216 449.505 685.087 470.588 659.157 470.588M753.275 423.529C753.275 371.623 711.063 329.411 659.157 329.411H478.404C470.216 329.411 462.969 325.505 458.546 318.635C454.216 311.906 453.604 303.811 456.946 296.47C479.722 246.023 496.475 193.505 506.687 140.423C513.322 105.6 504.24 69.9762 481.651 42.6821C459.204 15.5767 426.169 0 391.063 0H329.745V23.5292C329.745 129.553 265.133 220.706 210.969 278.541C180.663 310.823 137.227 329.412 91.8159 329.412H0.333374V635.294C0.333374 726.118 74.2159 800 165.039 800H565.039C616.945 800 659.157 757.788 659.157 705.883C659.157 686.541 653.275 668.517 643.251 653.553C679.863 640.659 706.216 605.694 706.216 564.706C706.216 545.365 700.333 527.341 690.31 512.377C726.922 499.482 753.275 464.517 753.275 423.53" stroke="#B2B2B3" stroke-width="0.416667"/>
</svg>
